assets/img/icon/social-networks/instagram.svg

<svg fill="none" height="15" viewBox="0 0 15 15" width="15" xmlns="http://www.w3.org/2000/svg"><path d="m7.3125 3.40625c-2 0-3.59375 1.625-3.59375 3.59375 0 2 1.59375 3.5938 3.59375 3.5938 1.96875 0 3.5937-1.5938 3.5937-3.5938 0-1.96875-1.62495-3.59375-3.5937-3.59375zm0 5.9375c-1.28125 0-2.34375-1.03125-2.34375-2.34375 0-1.28125 1.03125-2.3125 2.34375-2.3125 1.28125 0 2.3125 1.03125 2.3125 2.3125 0 1.3125-1.03125 2.34375-2.3125 2.34375zm4.5625-6.0625c0-.46875-.375-.84375-.8438-.84375-.4687 0-.8437.375-.8437.84375s.375.84375.8437.84375c.4688 0 .8438-.375.8438-.84375zm2.375.84375c-.0625-1.125-.3125-2.125-1.125-2.9375s-1.8125-1.0625-2.9375-1.125c-1.15625-.0625-4.625-.0625-5.78125 0-1.125.0625-2.09375.3125-2.9375 1.125-.8125.8125-1.0625 1.8125-1.125 2.9375-.0625 1.15625-.0625 4.625 0 5.78125.0625 1.12495.3125 2.09375 1.125 2.93755.84375.8124 1.8125 1.0624 2.9375 1.125 1.15625.0624 4.625.0624 5.78125 0 1.125-.0626 2.125-.3126 2.9375-1.125.8125-.8438 1.0625-1.8126 1.125-2.93755.0625-1.15625.0625-4.625 0-5.78125zm-1.5 7c-.2188.625-.7188 1.0938-1.3125 1.3438-.9375.375-3.125.2812-4.125.2812-1.03125 0-3.21875.0938-4.125-.2812-.625-.25-1.09375-.7188-1.34375-1.3438-.375-.9062-.28125-3.09375-.28125-4.125 0-1-.09375-3.1875.28125-4.125.25-.59375.71875-1.0625 1.34375-1.3125.90625-.375 3.09375-.28125 4.125-.28125 1 0 3.1875-.09375 4.125.28125.5937.21875 1.0625.71875 1.3125 1.3125.375.9375.2812 3.125.2812 4.125 0 1.03125.0938 3.2188-.2812 4.125z" fill="#353132" fill-opacity=".6"/></svg>

<svg width="15" height="15" viewBox="0 0 15 15" fill="none" xmlns="http://www.w3.org/2000/svg">
<path d="M7.3125 3.40625C5.3125 3.40625 3.71875 5.03125 3.71875 7C3.71875 9 5.3125 10.5938 7.3125 10.5938C9.28125 10.5938 10.9062 9 10.9062 7C10.9062 5.03125 9.28125 3.40625 7.3125 3.40625ZM7.3125 9.34375C6.03125 9.34375 4.96875 8.3125 4.96875 7C4.96875 5.71875 6 4.6875 7.3125 4.6875C8.59375 4.6875 9.625 5.71875 9.625 7C9.625 8.3125 8.59375 9.34375 7.3125 9.34375ZM11.875 3.28125C11.875 2.8125 11.5 2.4375 11.0312 2.4375C10.5625 2.4375 10.1875 2.8125 10.1875 3.28125C10.1875 3.75 10.5625 4.125 11.0312 4.125C11.5 4.125 11.875 3.75 11.875 3.28125ZM14.25 4.125C14.1875 3 13.9375 2 13.125 1.1875C12.3125 0.375 11.3125 0.125 10.1875 0.0625C9.03125 0 5.5625 0 4.40625 0.0625C3.28125 0.125 2.3125 0.375 1.46875 1.1875C0.65625 2 0.40625 3 0.34375 4.125C0.28125 5.28125 0.28125 8.75 0.34375 9.90625C0.40625 11.0312 0.65625 12 1.46875 12.8438C2.3125 13.6562 3.28125 13.9062 4.40625 13.9688C5.5625 14.0312 9.03125 14.0312 10.1875 13.9688C11.3125 13.9062 12.3125 13.6562 13.125 12.8438C13.9375 12 14.1875 11.0312 14.25 9.90625C14.3125 8.75 14.3125 5.28125 14.25 4.125ZM12.75 11.125C12.5312 11.75 12.0312 12.2188 11.4375 12.4688C10.5 12.8438 8.3125 12.75 7.3125 12.75C6.28125 12.75 4.09375 12.8438 3.1875 12.4688C2.5625 12.2188 2.09375 11.75 1.84375 11.125C1.46875 10.2188 1.5625 8.03125 1.5625 7C1.5625 6 1.46875 3.8125 1.84375 2.875C2.09375 2.28125 2.5625 1.8125 3.1875 1.5625C4.09375 1.1875 6.28125 1.28125 7.3125 1.28125C8.3125 1.28125 10.5 1.1875 11.4375 1.5625C12.0312 1.78125 12.5 2.28125 12.75 2.875C13.125 3.8125 13.0312 6 13.0312 7C13.0312 8.03125 13.125 10.2188 12.75 11.125Z" fill="#353132" fill-opacity="0.6"/>
</svg>
